!!!OTL: Der Daeumling.
!!!OTL-incipit: ICH WILL EUCH SINGEN EINEN SANG
!!!ARE: Europa, Mitteleuropa, Deutschland, Hessen
!!!SCT: Z1117
!!!TXL: @@DE
!!!YEM: Copyright 1995, estate of Helmut Schaffrath.
**kern	**text
*ICvox	*
*M2/4	*
*k[]	*
*C:	*
!LO:TX:a:t=Heſſen.	!
{8g	Jch
=1	=1
4cc	will
8bL	euch
8aJ	.
=2	=2
4g	ſin-
4cc	-gen
=3	=3
4e	ei-
4f	-nen
=4	=4
4g}	Sang
{(8ccL	von
8bJ)	.
=5	=5
(8aL	ei-
8bJ)	.
4cc	-nem
=6	=6
4dd	ed-
(8ccL	-len
8bJ)	.
=7	=7
4cc;}	Held,
{4g	ſein
=8	=8
4cc	Na-
(8bL	-men
8aJ)	.
=9	=9
4g	iſt
4cc	ein
=10	=10
4e	gu-
4f	-ter
=11	=11
4g}	Klang,
{(8ccL	er-
8bJ)	.
=12	=12
(8aL	-ſchol-
8bJ)	.
4cc	-len
=13	=13
4dd	in
(8ccL	dem
8bJ)	.
=14	=14
4cc}	Feld,
{(8ccL	er
8ddJ)	.
=15	=15
4ee	hat
4cc	für
=16	=16
4ff	Kai-
4ee	-ſer
=17	=17
8.ddL	und
16ccJ	.
8bL	für
8ccJ	.
=18	=18
4dd}	Reich
{8ccL	ge-
8ddJ	.
=19	=19
4ee	-foch-
4cc	-ten
=20	=20
4ff	man-
4ee	-chen
=21	=21
4dd;	Streich;
8r}	.
{8g	drum
=22	=22
4cc	ſoll
(8bL	man
8aJ)	.
=23	=23
4g	von
4cc	dem
=24	=24
4e	Däu-
4f	-me-
=25	=25
4g}	-ling
{(8ccL	auch
8bJ)	.
=26	=26
8aL	ſa-
8bJ	.
(8ccL	-gen
8eeJ)	.
=27	=27
4dd	al-
(8ccL	-le
8bJ)	.
=28	=28
4cc	Ʒeit!
8r}	.
==	==
!!!AGN: Romanze, Ballade
!!!ONB: ESAC (Essen Associative Code) Database: ZUCCAL
!!!AMT: simple duple
!!!AIN: vox
!!!EED: Helmut Schaffrath
!!!EEV: 1.0
!!!GTL: II. Gau- Leuschen.
!!!URL-scan: https://www.digitale-sammlungen.de/de/view/bsb11160573?page=250
!!!ENC: Anna Maria Matuszewska
!!!EEV: 2025/02/04
*-	*-
